X:1
T:The South Wind
M:3/4
L:1/4
K:G
 d/2c/2| B3/2 A/2 G| B3/2 c/2 d| A2 B| A2 d/2c/2| B3/2 A/2 G| E3/2 D/2 E|\
 G3-| G z d/2c/2| B3/2 A/2 G| B3/2 c/2 d| A2 B| A2 d/2c/2| B3/2 A/2 G|\
 E3/2 D/2 E| G3-| G z(3d3.99999962500005/11.9999985000002d3.99999962500005/11.9999985000002e3.99999962500005/11.9999985000002d3.99999962500005/11.9999985000002e3.99999962500005/11.9999985000002f3.99999962500005/11.9999985000002|\
 g3/2 a/2 f| g3/2 f/2 e| d2 e| d2 c| B3/2 A/2 G| B3/2 c/2 d| A2 B|\
 A z(3d3.99999962500005/11.9999985000002d3.99999962500005/11.9999985000002e3.99999962500005/11.9999985000002d3.99999962500005/11.9999985000002e3.99999962500005/11.9999985000002f3.99999962500005/11.9999985000002|\
 g3/2 a/2 f| g3/2 f/2 e| d2 e| d2 c| B/2 d3/2 G| A/2 c3/2 F| G3-| G z||\


